icons/globe_fill.svg

<svg width="48" height="48" viewBox="0 0 48 48" fill="none" xmlns="http://www.w3.org/2000/svg">
<path fill-rule="evenodd" clip-rule="evenodd" d="M11.3906 39.5251C14.8312 42.3229 19.2197 44 24 44C35.0457 44 44 35.0457 44 24C44 12.9543 35.0457 4 24 4C12.9543 4 4 12.9543 4 24C4 29.7848 6.45593 34.9959 10.382 38.6476C10.481 38.7894 10.5813 38.9322 10.6828 39.0763C10.7999 39.2423 10.9647 39.3687 11.1554 39.4387L11.3906 39.5251ZM41.9995 24.1337C41.8513 24.0481 41.6801 24 41.5 24H33.6664C33.0439 23.9989 32.4409 24.2094 31.9529 24.5949C31.465 24.9804 31.1205 25.5182 30.9704 26.1209L30.9697 26.1238L30.0811 29.7379C29.9805 30.1494 29.9734 30.5787 30.0603 30.9934C30.1472 31.4081 30.326 31.7984 30.5843 32.1345C30.8427 32.4707 31.1742 32.744 31.5544 32.9325C31.9345 33.1209 32.3528 33.2192 32.7772 33.2191H33.2156L34.2044 38.8301C31.3043 40.8294 27.7889 42 24 42C20.2545 42 16.7762 40.856 13.8955 38.8984L15.4252 30.313H16.433C16.9755 30.3132 17.5108 30.189 17.998 29.9501C18.4854 29.7112 18.9117 29.364 19.2448 28.9352C19.578 28.5066 19.8094 28.0076 19.922 27.4762C20.0345 26.9449 20.0253 26.3949 19.895 25.8676L18.6117 20.7053L18.6109 20.7024C18.4165 19.9302 17.971 19.2443 17.3439 18.7543C16.7169 18.2644 15.9444 17.9985 15.149 18H7.02423C9.49525 11.0088 16.1627 6 24 6C25.3444 6 26.6543 6.14738 27.9146 6.42686L27.4816 7.8435H27.2925C26.9446 7.84341 26.6012 7.9225 26.2884 8.07479C25.9755 8.22714 25.7013 8.44876 25.4868 8.72289C25.2723 8.99701 25.123 9.31643 25.0504 9.65689C24.9778 9.99736 24.9837 10.3499 25.0678 10.6877C25.0838 10.7521 25.1062 10.8147 25.1346 10.8747L27.7448 16.3797C27.8828 16.8306 28.1569 17.2288 28.5308 17.5189C28.9338 17.8316 29.4295 18.0008 29.9394 18H40.9758C41.6391 19.8767 42 21.8962 42 24L41.9998 24.0758L41.9995 24.1337Z" fill="black"/>
</svg>

<svg
  xmlns="http://www.w3.org/2000/svg"
  width="24"
  height="24"
  viewBox="0 0 24 24"
  fill="none"
  stroke="currentColor"
  stroke-width="2"
  stroke-linecap="round"
  stroke-linejoin="round"
>
  <path
    fill-rule="evenodd"
    d="M11.39 39.525A19.92 19.92 0 0 0 24 44c11.046 0 20-8.954 20-20S35.046 4 24 4 4 12.954 4 24a19.95 19.95 0 0 0 6.382 14.648l.3.428a1 1 0 0 0 .473.363zM42 24.134a1 1 0 0 0-.5-.134h-7.834a2.76 2.76 0 0 0-1.713.595 2.8 2.8 0 0 0-.983 1.526v.003l-.889 3.614a2.84 2.84 0 0 0 .503 2.397c.259.336.59.609.97.797s.799.287 1.223.287h.439l.988 5.611C31.304 40.83 27.79 42 24 42a17.9 17.9 0 0 1-10.104-3.102l1.53-8.585h1.007a3.55 3.55 0 0 0 2.812-1.378 3.59 3.59 0 0 0 .65-3.067l-1.283-5.163-.001-.003a3.58 3.58 0 0 0-1.267-1.948A3.55 3.55 0 0 0 15.149 18H7.024C9.495 11.009 16.163 6 24 6c1.344 0 2.654.147 3.915.427l-.433 1.417h-.19a2.293 2.293 0 0 0-2.224 2.844q.024.097.067.187l2.61 5.505A2.29 2.29 0 0 0 29.939 18h11.037A18 18 0 0 1 42 24v.134"
    clip-rule="evenodd"
  />
</svg>
